public/cloud-icons/azure/data/import-export-job.svg

<?xml version="1.0" encoding="UTF-8" standalone="no"?>
<!-- Generated by Microsoft Visio, SVG Export Import Export Job.svg Page-1 -->

<svg
   xmlns:dc="http://purl.org/dc/elements/1.1/"
   xmlns:cc="http://creativecommons.org/ns#"
   xmlns:rdf="http://www.w3.org/1999/02/22-rdf-syntax-ns#"
   xmlns:svg="http://www.w3.org/2000/svg"
   xmlns="http://www.w3.org/2000/svg"
   xmlns:sodipodi="http://sodipodi.sourceforge.net/DTD/sodipodi-0.dtd"
   xmlns:inkscape="http://www.inkscape.org/namespaces/inkscape"
   width="53.860001"
   height="56.702236"
   viewBox="0 0 53.86 56.702235"
   xml:space="preserve"
   class="st3"
   version="1.1"
   id="svg30"
   sodipodi:docname="Import Export Job.svg"
   style="font-size:12px;overflow:visible;color-interpolation-filters:sRGB;fill:none;fill-rule:evenodd;stroke-linecap:square;stroke-miterlimit:3"
   inkscape:version="0.92.5 (2060ec1f9f, 2020-04-08)"><metadata
   id="metadata34"><rdf:RDF><cc:Work
       rdf:about=""><dc:format>image/svg+xml</dc:format><dc:type
         rdf:resource="http://purl.org/dc/dcmitype/StillImage" /></cc:Work></rdf:RDF></metadata><sodipodi:namedview
   pagecolor="#ffffff"
   bordercolor="#666666"
   borderopacity="1"
   objecttolerance="10"
   gridtolerance="10"
   guidetolerance="10"
   inkscape:pageopacity="0"
   inkscape:pageshadow="2"
   inkscape:window-width="640"
   inkscape:window-height="480"
   id="namedview32"
   showgrid="false"
   inkscape:zoom="1.8872149"
   inkscape:cx="26.9293"
   inkscape:cy="28.351116"
   inkscape:window-x="0"
   inkscape:window-y="0"
   inkscape:window-maximized="0"
   inkscape:current-layer="svg30" />
	<style
   type="text/css"
   id="style2">
	<![CDATA[
		.st1 {fill:url(#grad0-6);stroke:none;stroke-linecap:butt;stroke-width:34.1742}
		.st2 {fill:#ffffff;stroke:none;stroke-linecap:butt;stroke-width:34.1742}
		.st3 {fill:none;fill-rule:evenodd;font-size:12px;overflow:visible;stroke-linecap:square;stroke-miterlimit:3}
	]]>
	</style>

	<defs
   id="Patterns_And_Gradients">
		<linearGradient
   id="grad0-6"
   x1="0"
   y1="66.614037"
   x2="55.262849"
   y2="66.614037"
   gradientTransform="scale(0.97461498,1.0260462)"
   gradientUnits="userSpaceOnUse">
			<stop
   offset="0"
   stop-color="#0078d4"
   stop-opacity="1"
   id="stop4" />
			<stop
   offset="0.82"
   stop-color="#5ea0ef"
   stop-opacity="1"
   id="stop6" />
		</linearGradient>
	</defs>
	<g
   id="g28"
   transform="translate(-34.1742,-34.17488)">
		<title
   id="title10">Page-1</title>
		<g
   id="group20670-1"
   transform="translate(34.1742,-34.1742)">
			<title
   id="title12">Import Export Job.20670</title>
			<g
   id="group20671-2">
				<title
   id="title14">g15</title>
				<g
   id="shape20672-3">
					<title
   id="title16">path11</title>
					<path
   d="M 43.49,83.01 A 15.2698,15.3544 -180 0 0 27.66,68.36 15.6673,15.7541 -180 0 0 12.69,78.62 14.4417,14.5218 -180 0 0 0,92.57 14.6736,14.7549 -180 0 0 15.17,106.73 h 1.33 8.38 v 8.76 a 0.430601,0.432988 0 0 1 -0.430601,0.43299 L 19.58,115.92 a 0.430601,0.432988 -180 0 0 -0.298108,0.73275 L 27.46,124.88 a 0.62934,0.632829 -180 0 0 0.861202,0 L 36.5,116.65 a 0.430601,0.432988 -180 0 0 -0.298108,-0.73275 L 31.3,115.92 a 0.397478,0.399681 0 0 1 -0.397478,-0.43299 L 30.9,106.66 h 10.14 a 2.11988,2.13163 -180 0 0 0.66,0 A 12.2224,12.2902 -180 0 0 53.86,94.8 12.09,12.157 -180 0 0 43.49,83.01 Z"
   class="st1"
   id="path18"
   inkscape:connector-curvature="0"
   style="fill:url(#grad0-6);stroke:none;stroke-width:34.17419815;stroke-linecap:butt" />
				</g>
				<g
   id="shape20673-7"
   transform="translate(13.1622,-18.3901)">
					<title
   id="title21">path13</title>
					<path
   d="m 0.09,112.66 8.18,-8.19 a 0.563094,0.566215 0 0 1 0.861202,0 L 17.31,112.66 a 0.430601,0.432988 0 0 1 -0.231862,0.73275 L 12.14,113.39 a 0.430601,0.432988 -180 0 0 -0.430601,0.43299 L 11.71,125.05 H 5.72 V 113.83 A 0.430601,0.432988 -180 0 0 5.289399,113.39701 L 0.52,113.39 a 0.430601,0.432988 0 0 1 -0.430601,-0.73275 z"
   class="st2"
   id="path23"
   inkscape:connector-curvature="0"
   style="fill:#ffffff;stroke:none;stroke-width:34.17419815;stroke-linecap:butt" />
				</g>
			</g>
		</g>
	</g>
</svg>

<svg xmlns="http://www.w3.org/2000/svg" xml:space="preserve" width="53.86" height="56.702" style="font-size:12px;overflow:visible;color-interpolation-filters:sRGB;fill-rule:evenodd;stroke-linecap:square;stroke-miterlimit:3" viewBox="0 0 53.86 56.702"><defs><linearGradient id="a" x1="0" x2="55.263" y1="66.614" y2="66.614" gradientTransform="scale(.97461 1.02605)" gradientUnits="userSpaceOnUse"><stop offset="0" stop-color="#0078d4"/><stop offset=".82" stop-color="#5ea0ef"/></linearGradient></defs><g transform="translate(-34.174 -34.175)"><title>Page-1</title><g transform="translate(34.174 -34.174)"><title>Import Export Job.20670</title><title>g15</title><title>path11</title><path d="M43.49 83.01a15.27 15.354-180 0 0-15.83-14.65 15.667 15.754-180 0 0-14.97 10.26A14.442 14.522-180 0 0 0 92.57a14.674 14.755-180 0 0 15.17 14.16h9.71v8.76a.43.433 0 0 1-.43.433l-4.87-.003a.43.433-180 0 0-.298.733l8.178 8.227a.63.633-180 0 0 .861 0l8.179-8.23a.43.433-180 0 0-.298-.733l-4.902.003a.397.4 0 0 1-.397-.433l-.003-8.827h10.14a2.12 2.132-180 0 0 .66 0A12.222 12.29-180 0 0 53.86 94.8a12.09 12.157-180 0 0-10.37-11.79" style="fill:url(#a);stroke:none;stroke-width:34.17419815;stroke-linecap:butt"/><g transform="translate(13.162 -18.39)"><title>path13</title><path d="m.09 112.66 8.18-8.19a.563.566 0 0 1 .861 0l8.179 8.19a.43.433 0 0 1-.232.733l-4.938-.003a.43.433-180 0 0-.43.433v11.227H5.72v-11.22a.43.433-180 0 0-.43-.433l-4.77-.007a.43.433 0 0 1-.43-.733z" style="fill:#fff;stroke:none;stroke-width:34.17419815;stroke-linecap:butt"/></g></g></g></svg>
